X:685
T:The humours of Kilclogher
T:Elizabeth Kelly
R:Single Jig
O:Ireland
B:Music from Ireland Vol. 3
B:Ceol Rince 1, #56
S:Ceol Rince 1
Z:Transcription, chords:Mike Long
M:6/8
L:1/8
K:G
F|\
"Em"GFE "C"c2E|"Em"G2E EFE|"D"DED D2E|GED D2E|\
"Em"GFE "C"c2E|"Em"G2E DEG|"D"A3 BAG|"(Am)"A3 A2:|
|:B|\
"Am"c2B c2d|eAA A2c|"G"BAG GAB|dBG GAB|\
"Am"c2B c2d|eAA A2c|"G"BAG GAB|"D"A3 A2:|
